X:1
T:In dich hab ich gehoffen - Schütz
T:James Gibb editions
%%score [ 1 2 3 4 ]
L:1/8
Q:1/4=200
M:none
K:F
V:1 treble nm="Soprano" snm="S"
V:2 treble nm="Alto" snm="A"
V:3 treble-8 nm="Tenor" snm="T"
V:4 bass nm="Bass" snm="B"
V:1
"^In dich hab ich gehoffet, Herr""^Heinrich Schütz\n (1585-1672)""^Adam Reusner\n(c.1496-1575)" F8 F4 F4 | %1
w: In dich hab'|
 (c6 BA G4) F4 | D4 E4 F8 | z4 F4 G4 A4 | B4 G4 c6 =B2 | c8 || z4 A4 A4 c4 | B4 A4 F8 | G8 z4 A4 | %9
w: ich * * * ge-|hof- fet, Herr,|Hilf, dass ich|nicht zu- schan- den|werd,|noch e- wig-|lich zu Spot-|te! Das|
 F4 G4 A8 | z4 F4 G4 A4 | B8 z4 B4 | A4 G4 (F6 G2 | A4) A4 G8 | F16 |] %15
w: bitt' ich dich,|er- hal- te|mich in|dei- ner Treu', *|* Herr Got-|te!|
V:2
 C8 C4 A,4 | C12 C4 | D4 C4 C8 | z4 F4 E4 E4 | G4 E4 G4 G4 | G8 || z4 F4 F4 F4 | F4 C4 D8 | %8
w: In dich hab'|ich ge-|hof- fet, Herr,|Hilf, dass ich|nicht zu- schan- den|werd,|noch e- wig-|lich zu Spot-|
 E8 z4 C4 | D4 D4 F8 | z4 F4 E4 F4 | F8 z4 F4 | F4 E4 D8 | C4 (F8 E4) | F16 |] %15
w: te! Das|bitt' ich dich,|er- hal- te|mich in|dei- ner Treu',|Herr Got\- *|te!|
V:3
 F8 A4 c4 | (A2 B2 c2 d2 e4) A4 | B4 G4 A8 | z4 A4 c4 c4 | d4 c4 e4 d4 | e8 || z4 c4 c4 c4 | %7
w: In dich hab'|ich * * * * ge-|hof- fet, Herr,|Hilf, dass ich|nicht zu- schan- den|werd,|noch e- wig-|
 d4 A4 A8 | c8 z4 A4 | A4 B4 c8 | z4 c4 c4 c4 | d8 z4 d4 | c4 B4 A8- | A4 B4 c8 | A16 |] %15
w: lich zu Spot-|te! Das|bitt' ich dich,|er- hal- te|mich in|dei- ner Treu',|* Herr Got-|te!|
V:4
 F,8 F,4 F,,4 | (F,,2 G,,2 A,,2 B,,2 C,4) F,4 | B,,4 C,4 F,,8 | z4 F,,4 C,4 A,,4 | %4
w: In dich hab'|ich * * * * ge-|hof- fet, Herr,|Hilf, dass ich|
 G,,4 C,4 C,4 G,4 | C,8 || z4 F,4 F,4 F,4 | B,,4 F,4 D,8 | C,8 z4 F,4 | D,4 G,4 F,8 | %10
w: nicht zu- schan- den|werd,|noch e- wig-|lich zu Spot-|te! Das|bitt' ich dich,|
 z4 F,,4 C,4 F,4 | B,,8 z4 B,,4 | F,4 G,4 (D,6 E,2 | F,4) F,,4 C,8 | F,,16 |] %15
w: er- hal- te|mich in|dei- ner Treu', *|* Herr Got-|te!|

